_src/static/img/icon/youtube.svg

<svg width="107" height="107" viewBox="0 0 107 107" fill="none" xmlns="http://www.w3.org/2000/svg">
<path d="M104.795 27.8146C103.562 23.2309 99.948 19.6177 95.365 18.3834C86.9918 16.0919 53.499 16.0919 53.499 16.0919C53.499 16.0919 20.0069 16.0919 11.6337 18.2961C7.13891 19.5296 3.4368 23.2317 2.20331 27.8146C0 36.187 0 53.5506 0 53.5506C0 53.5506 0 71.0016 2.20331 79.2866C3.43762 83.8696 7.05074 87.4835 11.6345 88.7178C20.0951 91.0093 53.4998 91.0093 53.4998 91.0093C53.4998 91.0093 86.9918 91.0093 95.365 88.8052C99.9488 87.5717 103.562 83.9577 104.796 79.3748C107 71.0016 107 53.6388 107 53.6388C107 53.6388 107.088 36.187 104.795 27.8146Z" fill="#FF0000"/>
<path d="M42.8359 69.5919L70.6872 53.5507L42.8359 37.5095V69.5919Z" fill="white"/>
</svg>

<svg width="107" height="107" fill="none" xmlns="http://www.w3.org/2000/svg"><path d="M104.795 27.815a13.404 13.404 0 00-9.43-9.432c-8.373-2.291-41.866-2.291-41.866-2.291s-33.492 0-41.865 2.204c-4.495 1.234-8.197 4.936-9.43 9.519C0 36.187 0 53.55 0 53.55S0 71 2.203 79.287a13.408 13.408 0 009.431 9.43C20.096 91.01 53.5 91.01 53.5 91.01s33.492 0 41.865-2.204a13.405 13.405 0 009.431-9.43C107 71.002 107 53.639 107 53.639s.088-17.452-2.205-25.824z" fill="red"/><path d="M42.836 69.592L70.687 53.55 42.836 37.51v32.082z" fill="#fff"/></svg>
